X:4
T: Dreiknigslied (Band 1), S. 17
N: P0778
O: Lothringen
S: PINCK, Louis: Verklingende Weisen, Bd 1, Metz 1928]
R: geistliche, religise Lieder]
M: 4/4
L: 1/16
K: G
D4 | G2F2E4F4G4 | A6B2A4
F2D2 | G4G4c4B3c | A8z4
D4 | G2F2E4F4G3B | A6B2A4
F2D2 | G4G4c4B3c | A8z4
F2G2 | A6B2A2G2F2E2 | D6^C2D4
D4 | G6A2G4F4 | E8D4
D4 | G2F2E4F4G4 | A6B2G4
c4 | B4B4A2G2A4 | G8z4

@@@ Tune index: 7554
